X:287
T:Rond de Loudeac s1.3 38.1
M:4/4
C:Shepard p38.1
J:Lark19?
Q:1/4=170
K:Am
L:1/8
eded cAA2|ededc2c2|eded cAA2|ededc2c2|
e2ge cdef|edcB A2A2|e2ge cdef|edcB A2A2||

